public/Skills.svg

<svg width="50" height="50" viewBox="0 0 50 50" fill="none" xmlns="http://www.w3.org/2000/svg">
<path d="M33.2591 2.31101C33.3233 2.08684 33.3458 1.85126 33.3252 1.61776C33.3048 1.38426 33.2412 1.1574 33.1389 0.950133C33.0364 0.742862 32.8968 0.559241 32.7283 0.409754C32.5596 0.260268 32.365 0.147846 32.1558 0.0789018C31.9466 0.00995813 31.7268 -0.0141523 31.5089 0.00794354C31.291 0.0300394 31.0793 0.0979102 30.8858 0.207679C30.6925 0.31745 30.521 0.46697 30.3816 0.647706C30.2421 0.828439 30.1371 1.03685 30.0727 1.26103L16.741 47.689C16.6111 48.1417 16.6543 48.6313 16.8612 49.0499C17.0681 49.4684 17.4217 49.782 17.8442 49.9211C18.2667 50.0603 18.7236 50.014 19.1142 49.7924C19.505 49.5707 19.7975 49.1917 19.9272 48.739L33.2591 2.31101ZM14.5146 11.2359C14.6698 11.4018 14.7929 11.5988 14.8769 11.8158C14.9609 12.0327 15.0042 12.2653 15.0042 12.5002C15.0042 12.735 14.9609 12.9676 14.8769 13.1846C14.7929 13.4015 14.6698 13.5985 14.5146 13.7644L4.02585 25.0001L14.5146 36.2355C14.8275 36.5709 15.0033 37.0257 15.0033 37.4999C15.0033 37.974 14.8275 38.4288 14.5146 38.764C14.2017 39.0995 13.7773 39.2878 13.3347 39.2878C12.8922 39.2878 12.4678 39.0995 12.1549 38.764L0.489588 26.2643C0.334396 26.0984 0.211267 25.9013 0.127256 25.6845C0.0432438 25.4674 0 25.2349 0 25.0001C0 24.7651 0.0432438 24.5326 0.127256 24.3155C0.211267 24.0986 0.334396 23.9015 0.489588 23.7357L12.1549 11.2359C12.3097 11.0696 12.4936 10.9377 12.696 10.8476C12.8985 10.7576 13.1155 10.7113 13.3347 10.7113C13.5539 10.7113 13.771 10.7576 13.9734 10.8476C14.1759 10.9377 14.3598 11.0696 14.5146 11.2359ZM35.4854 11.2359C35.3302 11.4018 35.2071 11.5988 35.1231 11.8158C35.0391 12.0327 34.9958 12.2653 34.9958 12.5002C34.9958 12.735 35.0391 12.9676 35.1231 13.1846C35.2071 13.4015 35.3302 13.5985 35.4854 13.7644L45.9742 25.0001L35.4854 36.2355C35.3306 36.4015 35.2077 36.5986 35.1237 36.8157C35.04 37.0326 34.9969 37.2651 34.9969 37.4999C34.9969 37.7347 35.04 37.9672 35.1237 38.184C35.2077 38.4009 35.3306 38.598 35.4854 38.764C35.6404 38.9301 35.8244 39.0617 36.0269 39.1517C36.2291 39.2415 36.4462 39.2878 36.6654 39.2878C36.8844 39.2878 37.1014 39.2415 37.3039 39.1517C37.5062 39.0617 37.6902 38.9301 37.8452 38.764L49.5104 26.2643C49.6656 26.0984 49.7888 25.9013 49.8729 25.6845C49.9569 25.4674 50 25.2349 50 25.0001C50 24.7651 49.9569 24.5326 49.8729 24.3155C49.7888 24.0986 49.6656 23.9015 49.5104 23.7357L37.8452 11.2359C37.6904 11.0696 37.5064 10.9377 37.3039 10.8476C37.1016 10.7576 36.8846 10.7113 36.6654 10.7113C36.4462 10.7113 36.2291 10.7576 36.0266 10.8476C35.8241 10.9377 35.6402 11.0696 35.4854 11.2359V11.2359Z" fill="#1096E1"/>
</svg>

<svg xmlns="http://www.w3.org/2000/svg" width="50" height="50" fill="none" xmlns:v="https://vecta.io/nano"><path d="M33.259 2.311a1.91 1.91 0 0 0 .066-.693 1.88 1.88 0 0 0-.186-.668 1.77 1.77 0 0 0-.411-.54c-.169-.149-.363-.262-.572-.331a1.56 1.56 0 0 0-.647-.071c-.218.022-.43.09-.623.2s-.365.259-.504.44a1.83 1.83 0 0 0-.309.613L16.741 47.689a1.9 1.9 0 0 0 .12 1.361 1.7 1.7 0 0 0 .983.871c.422.139.879.093 1.27-.129s.683-.601.813-1.053L33.259 2.311zm-18.744 8.925a1.8 1.8 0 0 1 .362.58c.084.217.127.45.127.684a1.9 1.9 0 0 1-.127.684 1.8 1.8 0 0 1-.362.58L4.026 25l10.489 11.235c.313.335.489.79.489 1.264s-.176.929-.489 1.264-.737.524-1.18.524-.867-.188-1.18-.524L.49 26.264a1.8 1.8 0 0 1-.362-.58 1.9 1.9 0 0 1 0-1.369 1.8 1.8 0 0 1 .362-.58l11.665-12.5c.155-.166.339-.298.541-.388a1.57 1.57 0 0 1 1.277 0c.203.09.386.222.541.388zm20.971 0a1.8 1.8 0 0 0-.362.58c-.084.217-.127.45-.127.684a1.9 1.9 0 0 0 .127.684 1.8 1.8 0 0 0 .362.58L45.974 25 35.485 36.236c-.155.166-.278.363-.362.58s-.127.449-.127.684a1.9 1.9 0 0 0 .127.684c.084.217.207.414.362.58a1.67 1.67 0 0 0 .541.388 1.57 1.57 0 0 0 .639.136c.219 0 .436-.046.639-.136a1.67 1.67 0 0 0 .541-.388l11.665-12.5a1.8 1.8 0 0 0 .363-.58 1.9 1.9 0 0 0 0-1.369 1.8 1.8 0 0 0-.363-.58l-11.665-12.5c-.155-.166-.339-.298-.541-.388a1.57 1.57 0 0 0-1.277 0c-.203.09-.386.222-.541.388h0z" fill="#1096e1"/></svg>
